resources/haticons/SVG/line_weight.svg

<!-- Generated by IcoMoon.io -->
<svg version="1.1" xmlns="http://www.w3.org/2000/svg" width="24" height="24" viewBox="0 0 24 24">
<title>line_weight</title>
<path d="M3 3.984h18v4.031h-18v-4.031zM3 12.984v-3h18v3h-18zM3 20.016v-1.031h18v1.031h-18zM3 17.016v-2.016h18v2.016h-18z"></path>
</svg>

<svg xmlns="http://www.w3.org/2000/svg" width="24" height="24"><path d="M3 3.984h18v4.031H3V3.984zm0 9v-3h18v3H3zm0 7.032v-1.031h18v1.031H3zm0-3V15h18v2.016H3z"/></svg>
